X:1
T:Title
%%score { ( 1 2 ) | ( 3 4 ) }
L:1/8
M:4/4
K:G
V:1 treble nm="Grand Piano"
V:2 treble 
V:3 treble 
V:4 treble 
V:1
 z4 z2[Q:1/4=112] z A | B3 B B2 c2 | B4 B2 A2 | [EG]2 [Ec]2 [Ec]2 [Ec]2 | [Ec]6 [Ge]2 | %5
 e3 d d2 d2 | d4 d2 B2 | [GB]2 [FA]2 [FA]2 [FA]2 |[M:9/8] [FA]6 [Fd] c2 |[M:4/4] B3 B B2 c2 | %10
 B4 B2 A2 | [EG]2 [Ec]2 [Ec]2 [Ec]2 | [Ec]6 [Ge]2 | e3 d d2 d2 | d4 d2 B2 | %15
 [CFA]3 [B,G] [DGB]2 [CFA]2 |[M:3/4] [B,G]6 |[M:1/4] Bc |[M:4/4] d3 d d2 e2 | d4 B2 G2 | %20
 B2 [B,DG]2 [B,DG]2 [CE]2 | [B,D]6 [B,D]2 | [CE]3 [EG] [EG]2 [EA]2 |[M:9/8] B3- B d2- d B2 | %24
[M:4/4] [CFA]3 [B,G] [DGB]2 [CFA]2 |[M:3/4] [G,B,G]6 |] %26
V:2
 z4 z2 G2 | x8 | x8 | x8 | x8 | x8 | x8 | x8 |[M:9/8] x9 |[M:4/4] x8 | x8 | x8 | x8 | x8 | x8 | %15
 x8 |[M:3/4] x6 |[M:1/4] x2 |[M:4/4] x8 | x8 | x8 | x8 | x8 |[M:9/8] x9 |[M:4/4] x8 |[M:3/4] x6 |] %26
V:3
 z4 z2 B,C | [G,DG]3 [G,DG] [G,DG]2 [G,EG]2 | [G,DG]4 [G,DG]2 [G,B,=F]2 | %3
 [C,C]2 [C,G,]2 [C,G,]2 [C,G,]2 | [C,G,]6 [C,C]2 | [G,CG]3 [G,B,G] [G,B,G]2 [G,B,G]2 | %6
 [G,B,G]4 [G,B,G]2 [G,DG]2 | [D,D]2 [D,D]2 [D,D]2 [D,D]2 |[M:9/8] [D,D]6 A,[K:treble] [DA]2 | %9
[M:4/4] [G,DG]3 [G,DG] [G,DG]2 [G,EG]2 | [G,DG]4 [G,DG]2 [G,B,=F]2 | %11
 [C,C]2 [C,G,]2 [C,G,]2 [C,G,]2 | [C,G,]6 [C,C]2 | [G,CG]3 [G,B,G] [G,B,G]2 [G,B,G]2 | %14
 [G,B,G]4 [G,B,G]2 [G,DG]2 | D,3 D, D,2 D,2 |[M:3/4] [G,,G,]6 |[M:1/4][K:treble] [G,G]2 | %18
[M:4/4] [G,B,G]3 [G,B,G] [G,B,G]2 [G,CG]2 | [G,B,G]4 [G,DG]2[K:bass] [G,B,D]2 | %20
 [G,D]2 G,,2 G,,2 [G,,G,]2 | [G,,G,]6 [G,,G,]2 | [C,G,]3 [C,C] [C,C]2 [C,C]2 | %23
[M:9/8][K:treble] [G,DG]3- [G,DG] [G,B,G]2- [G,B,G] [G,DG]2 |[M:4/4][K:bass] D,3 D, D,2 D,2 | %25
[M:3/4] G,,6 |] %26
V:4
 z4 z2 G,2 | x8 | x8 | x8 | x8 | x8 | x8 | x8 |[M:9/8] z3 z3 D,3[K:treble] |[M:4/4] x8 | x8 | x8 | %12
 x8 | x8 | x8 | x8 |[M:3/4] x6 |[M:1/4][K:treble] z A, |[M:4/4] x8 | x6[K:bass] x2 | x8 | x8 | x8 | %23
[M:9/8][K:treble] x9 |[M:4/4][K:bass] x8 |[M:3/4] x6 |] %26

